public/assets/arweave.svg

<svg width="78" height="13" viewBox="0 0 78 13" fill="none" xmlns="http://www.w3.org/2000/svg">
<g clip-path="url(#clip0_1:726)">
<path d="M23.4678 8.43891C23.4389 8.38362 23.4144 8.32001 23.3942 8.2481C23.374 8.17619 23.3567 8.10014 23.3423 8.01995C23.2759 8.08909 23.1994 8.15409 23.1129 8.21491C23.0263 8.27576 22.9296 8.32967 22.8229 8.37668C22.719 8.42096 22.6035 8.45549 22.4766 8.48039C22.3496 8.50806 22.2125 8.52187 22.0654 8.52187C21.8259 8.52187 21.6051 8.48868 21.4031 8.42234C21.204 8.35596 21.0323 8.26329 20.888 8.14438C20.7437 8.02547 20.6312 7.88446 20.5504 7.72127C20.4696 7.55536 20.4292 7.3756 20.4292 7.18202C20.4292 6.70914 20.6125 6.34413 20.9789 6.08693C21.3483 5.82697 21.898 5.69701 22.6281 5.69701H23.299V5.43153C23.299 5.21581 23.2254 5.04575 23.0782 4.92132C22.9311 4.79408 22.719 4.7305 22.4419 4.7305C22.1967 4.7305 22.0178 4.78165 21.9052 4.88398C21.7927 4.98351 21.7364 5.11766 21.7364 5.28633H20.5331C20.5331 5.09552 20.5764 4.91437 20.6629 4.74293C20.7524 4.57146 20.8808 4.42078 21.0482 4.29078C21.2184 4.16082 21.4248 4.05849 21.6672 3.98382C21.9124 3.90639 22.1923 3.86768 22.5069 3.86768C22.7897 3.86768 23.0522 3.90086 23.2946 3.96723C23.5399 4.0336 23.752 4.13177 23.9309 4.26173C24.1099 4.39173 24.2498 4.55626 24.3508 4.75536C24.4518 4.95171 24.5023 5.17986 24.5023 5.43981V7.36455C24.5023 7.60513 24.5182 7.80427 24.5499 7.9619C24.5816 8.11952 24.6278 8.255 24.6884 8.36839V8.43891H23.4678ZM22.3207 7.63003C22.4419 7.63003 22.5545 7.61622 22.6583 7.58855C22.7622 7.56089 22.856 7.52493 22.9397 7.48069C23.0234 7.43645 23.0955 7.38669 23.1561 7.33135C23.2167 7.2733 23.2644 7.21521 23.299 7.15716V6.38561H22.6843C22.4968 6.38561 22.3366 6.40356 22.2039 6.43951C22.0711 6.47271 21.9629 6.52109 21.8792 6.58471C21.7956 6.64552 21.7335 6.72019 21.6931 6.80871C21.6527 6.89443 21.6325 6.98844 21.6325 7.09077C21.6325 7.24564 21.6888 7.37421 21.8013 7.47655C21.9168 7.57888 22.0899 7.63003 22.3207 7.63003Z" fill="#5A5A5A" fill-opacity="0.64"/>
<path d="M29.229 3.86768C29.4108 3.86768 29.5781 3.88012 29.7311 3.90501C29.8869 3.92713 30.0124 3.95202 30.1076 3.97967L29.9302 5.12871C29.7715 5.09276 29.6084 5.06647 29.4411 5.0499C29.2766 5.03052 29.1193 5.02085 28.9693 5.02085C28.6316 5.02085 28.3604 5.08309 28.1555 5.20752C27.9535 5.33196 27.802 5.51034 27.701 5.74263V8.43892H26.4977V3.95064H27.6188L27.6751 4.68484C27.8655 4.43045 28.0935 4.23134 28.359 4.08753C28.6244 3.94096 28.9144 3.86768 29.229 3.86768Z" fill="#5A5A5A" fill-opacity="0.64"/>
<path d="M34.1853 7.03248L34.5922 3.95044H35.6959L34.8562 8.43871H33.8L33.1854 5.58481L32.5924 8.43871H31.5363L30.6965 3.95044H31.796L32.2028 7.04495L32.7915 3.95044H33.5966L34.1853 7.03248Z" fill="#5A5A5A" fill-opacity="0.64"/>
<path d="M38.7861 8.52187C38.4254 8.52187 38.0979 8.4652 37.8036 8.35181C37.5093 8.23843 37.2567 8.08495 37.0461 7.89137C36.8355 7.69503 36.6724 7.4655 36.557 7.20278C36.4444 6.93729 36.3882 6.65385 36.3882 6.35241V6.18646C36.3882 5.84359 36.4444 5.53106 36.557 5.249C36.6695 4.96418 36.8268 4.71941 37.0288 4.51478C37.2308 4.31016 37.4703 4.15115 37.7473 4.03775C38.0243 3.92437 38.3259 3.86768 38.652 3.86768C38.9896 3.86768 39.2897 3.9216 39.5523 4.02945C39.8178 4.13453 40.0414 4.28387 40.2232 4.47745C40.4079 4.67103 40.5478 4.9047 40.6431 5.17847C40.7383 5.44948 40.7859 5.74954 40.7859 6.07864V6.56809H37.6088C37.6319 6.72019 37.6781 6.85986 37.7473 6.98706C37.8194 7.11153 37.9104 7.21935 38.02 7.31064C38.1297 7.40188 38.2552 7.4724 38.3966 7.52217C38.538 7.57198 38.6924 7.59684 38.8597 7.59684C38.978 7.59684 39.0949 7.58579 39.2103 7.56365C39.3286 7.54155 39.4412 7.50974 39.5479 7.46826C39.6547 7.42402 39.7543 7.37007 39.8466 7.30649C39.939 7.24287 40.0198 7.1682 40.089 7.08249L40.6907 7.7047C40.6156 7.80703 40.5176 7.90795 40.3964 8.00752C40.278 8.10429 40.1366 8.19143 39.9721 8.26886C39.8106 8.34353 39.6302 8.40434 39.4311 8.45135C39.232 8.49839 39.017 8.52187 38.7861 8.52187ZM38.6433 4.80099C38.5077 4.80099 38.3836 4.82451 38.2711 4.87151C38.1585 4.91575 38.0589 4.98075 37.9724 5.06647C37.8887 5.15223 37.818 5.25452 37.7603 5.37343C37.7026 5.49234 37.6593 5.62511 37.6305 5.77168H39.6042V5.6804C39.5985 5.55872 39.5739 5.44396 39.5306 5.3361C39.4874 5.22828 39.4253 5.13561 39.3445 5.05818C39.2637 4.97799 39.1642 4.91575 39.0459 4.87151C38.9304 4.82451 38.7963 4.80099 38.6433 4.80099Z" fill="#5A5A5A" fill-opacity="0.64"/>
<path d="M44.7639 8.43891C44.7351 8.38362 44.7105 8.32001 44.6902 8.2481C44.6703 8.17619 44.6529 8.10014 44.6385 8.01995C44.5719 8.08909 44.4956 8.15409 44.4091 8.21491C44.3222 8.27576 44.2256 8.32967 44.1192 8.37668C44.0149 8.42096 43.8996 8.45549 43.7728 8.48039C43.6457 8.50806 43.5087 8.52187 43.3616 8.52187C43.1221 8.52187 42.9013 8.48868 42.6991 8.42234C42.5003 8.35596 42.3284 8.26329 42.1841 8.14438C42.0398 8.02547 41.9273 7.88446 41.8465 7.72127C41.7657 7.55536 41.7253 7.3756 41.7253 7.18202C41.7253 6.70914 41.9086 6.34413 42.275 6.08693C42.6444 5.82697 43.1942 5.69701 43.9242 5.69701H44.5952V5.43153C44.5952 5.21581 44.5215 5.04575 44.3744 4.92132C44.2273 4.79408 44.0149 4.7305 43.7381 4.7305C43.4926 4.7305 43.3137 4.78165 43.2014 4.88398C43.0886 4.98351 43.0327 5.11766 43.0327 5.28633H41.8292C41.8292 5.09552 41.8725 4.91437 41.959 4.74293C42.0485 4.57146 42.1769 4.42078 42.3443 4.29078C42.5147 4.16082 42.7207 4.05849 42.9632 3.98382C43.2086 3.90639 43.4884 3.86768 43.8029 3.86768C44.0857 3.86768 44.3485 3.90086 44.591 3.96723C44.836 4.0336 45.048 4.13177 45.2269 4.26173C45.4062 4.39173 45.5461 4.55626 45.647 4.75536C45.7478 4.95171 45.7983 5.17986 45.7983 5.43981V7.36455C45.7983 7.60513 45.8144 7.80427 45.8462 7.9619C45.878 8.11952 45.9238 8.255 45.9844 8.36839V8.43891H44.7639ZM43.6168 7.63003C43.7381 7.63003 43.8504 7.61622 43.9547 7.58855C44.0586 7.56089 44.1522 7.52493 44.2358 7.48069C44.3197 7.43645 44.3918 7.38669 44.4524 7.33135C44.513 7.2733 44.5605 7.21521 44.5952 7.15716V6.38561H43.9806C43.7928 6.38561 43.6329 6.40356 43.4998 6.43951C43.3672 6.47271 43.2591 6.52109 43.1755 6.58471C43.0916 6.64552 43.0297 6.72019 42.9895 6.80871C42.9488 6.89443 42.9288 6.98844 42.9288 7.09077C42.9288 7.24564 42.9848 7.37421 43.0975 7.47655C43.2129 7.57888 43.3862 7.63003 43.6168 7.63003Z" fill="#5A5A5A" fill-opacity="0.64"/>
<path d="M49.153 7.10715L49.2136 7.43073L49.2743 7.11962L50.3044 3.95044H51.5596L49.7804 8.43871H48.6507L46.863 3.95044H48.1182L49.153 7.10715Z" fill="#5A5A5A" fill-opacity="0.64"/>
<path d="M54.7584 8.52187C54.3977 8.52187 54.07 8.4652 53.7758 8.35181C53.4812 8.23843 53.229 8.08495 53.0183 7.89137C52.8076 7.69503 52.6444 7.4655 52.5291 7.20278C52.4167 6.93729 52.3604 6.65385 52.3604 6.35241V6.18646C52.3604 5.84359 52.4167 5.53106 52.5291 5.249C52.6418 4.96418 52.7991 4.71941 53.0009 4.51478C53.2031 4.31016 53.4426 4.15115 53.7194 4.03775C53.9967 3.92437 54.2981 3.86768 54.624 3.86768C54.9619 3.86768 55.2616 3.9216 55.5244 4.02945C55.7898 4.13453 56.0136 4.28387 56.1955 4.47745C56.3799 4.67103 56.5198 4.9047 56.6152 5.17847C56.7105 5.44948 56.758 5.74954 56.758 6.07864V6.56809H53.5808C53.6041 6.72019 53.6503 6.85986 53.7194 6.98706C53.7915 7.11153 53.8826 7.21935 53.992 7.31064C54.1018 7.40188 54.2273 7.4724 54.3689 7.52217C54.51 7.57198 54.6643 7.59684 54.8318 7.59684C54.95 7.59684 55.067 7.58579 55.1823 7.56365C55.3006 7.54155 55.4134 7.50974 55.5202 7.46826C55.627 7.42402 55.7262 7.37007 55.8186 7.30649C55.9111 7.24287 55.992 7.1682 56.0611 7.08249L56.6626 7.7047C56.5876 7.80703 56.4897 7.90795 56.3685 8.00752C56.2502 8.10429 56.1086 8.19143 55.9441 8.26886C55.7826 8.34353 55.6024 8.40434 55.4032 8.45135C55.204 8.49839 54.989 8.52187 54.7584 8.52187ZM54.6156 4.80099C54.4799 4.80099 54.3557 4.82451 54.2434 4.87151C54.1306 4.91575 54.031 4.98075 53.9445 5.06647C53.861 5.15223 53.7902 5.25452 53.7326 5.37343C53.6749 5.49234 53.6312 5.62511 53.6024 5.77168H55.5762V5.6804C55.5706 5.55872 55.5461 5.44396 55.5028 5.3361C55.4596 5.22828 55.3973 5.13561 55.3167 5.05818C55.2358 4.97799 55.1361 4.91575 55.0179 4.87151C54.9026 4.82451 54.7682 4.80099 54.6156 4.80099Z" fill="#5A5A5A" fill-opacity="0.64"/>
<path d="M59.026 7.77083C59.026 7.66297 59.0451 7.5634 59.0824 7.47216C59.1201 7.37811 59.1748 7.29792 59.2469 7.23158C59.3189 7.16243 59.4071 7.10848 59.511 7.06977C59.6148 7.02829 59.7318 7.00757 59.8615 7.00757C59.9913 7.00757 60.1082 7.02829 60.2121 7.06977C60.316 7.10848 60.4029 7.16243 60.472 7.23158C60.544 7.29792 60.5987 7.37811 60.6364 7.47216C60.6767 7.5634 60.6971 7.66297 60.6971 7.77083C60.6971 7.87589 60.6767 7.97408 60.6364 8.06532C60.5987 8.15661 60.544 8.2368 60.472 8.30594C60.4029 8.37228 60.316 8.42485 60.2121 8.46357C60.1082 8.50228 59.9913 8.52162 59.8615 8.52162C59.7318 8.52162 59.6148 8.50228 59.511 8.46357C59.4071 8.42485 59.3189 8.37228 59.2469 8.30594C59.1748 8.2368 59.1201 8.15661 59.0824 8.06532C59.0451 7.97408 59.026 7.87589 59.026 7.77083Z" fill="#5A5A5A" fill-opacity="0.64"/>
<path d="M62.9698 6.15331C62.9698 5.82697 63.0186 5.52553 63.1169 5.249C63.2149 4.9697 63.3577 4.72774 63.5455 4.52307C63.7359 4.31844 63.9665 4.15806 64.2378 4.0419C64.512 3.92575 64.8253 3.86768 65.1772 3.86768C65.529 3.86768 65.8423 3.92575 66.1165 4.0419C66.3904 4.15806 66.6214 4.31844 66.8088 4.52307C66.9996 4.72774 67.1437 4.9697 67.242 5.249C67.34 5.52553 67.3891 5.82697 67.3891 6.15331V6.24041C67.3891 6.56947 67.34 6.87367 67.242 7.15301C67.1437 7.42955 67.0008 7.67013 66.8135 7.87476C66.6257 8.07942 66.3951 8.23981 66.1208 8.35596C65.8465 8.46934 65.5349 8.52601 65.1856 8.52601C64.8338 8.52601 64.5192 8.46934 64.242 8.35596C63.9682 8.23981 63.7359 8.07942 63.5455 7.87476C63.3577 7.67013 63.2149 7.42955 63.1169 7.15301C63.0186 6.87367 62.9698 6.56947 62.9698 6.24041V6.15331ZM64.1729 6.24041C64.1729 6.42846 64.1916 6.60543 64.2293 6.77138C64.2666 6.93453 64.3259 7.07834 64.4065 7.20278C64.4875 7.32445 64.5913 7.42126 64.7185 7.49312C64.8482 7.56503 65.0042 7.60098 65.1856 7.60098C65.362 7.60098 65.5133 7.56503 65.6405 7.49312C65.7672 7.42126 65.8698 7.32445 65.9478 7.20278C66.0284 7.07834 66.0877 6.93453 66.125 6.77138C66.1628 6.60543 66.1814 6.42846 66.1814 6.24041V6.15331C66.1814 5.97078 66.1628 5.79792 66.125 5.63477C66.0877 5.47162 66.0284 5.32781 65.9478 5.20338C65.8698 5.07894 65.7672 4.98075 65.6405 4.90885C65.5133 4.83694 65.359 4.80099 65.1772 4.80099C64.9983 4.80099 64.8452 4.83694 64.7185 4.90885C64.5913 4.98075 64.4875 5.07894 64.4065 5.20338C64.3259 5.32781 64.2666 5.47162 64.2293 5.63477C64.1916 5.79792 64.1729 5.97078 64.1729 6.15331V6.24041Z" fill="#5A5A5A" fill-opacity="0.64"/>
<path d="M71.8214 3.86768C72.0028 3.86768 72.1702 3.88012 72.3233 3.90501C72.4793 3.92713 72.6048 3.95202 72.6997 3.97967L72.5225 5.12871C72.3635 5.09276 72.2008 5.06647 72.0333 5.0499C71.8688 5.03052 71.7116 5.02085 71.5615 5.02085C71.2236 5.02085 70.9528 5.08309 70.7476 5.20752C70.5458 5.33196 70.394 5.51034 70.2932 5.74263V8.43892H69.0901V3.95064H70.2109L70.2673 4.68484C70.4576 4.43045 70.6857 4.23134 70.9511 4.08753C71.2164 3.94096 71.5068 3.86768 71.8214 3.86768Z" fill="#5A5A5A" fill-opacity="0.64"/>
<path d="M73.6608 6.1616C73.6608 5.82145 73.704 5.51034 73.7905 5.22828C73.8799 4.94618 74.0071 4.70422 74.1716 4.50235C74.3361 4.30045 74.5353 4.1442 74.7689 4.0336C75.0025 3.92298 75.2665 3.86768 75.5612 3.86768C75.835 3.86768 76.0703 3.91192 76.2666 4.00041C76.4628 4.08891 76.6303 4.21473 76.7685 4.37788L76.8164 3.95064H77.9113V8.29372C77.9113 8.59792 77.8567 8.86893 77.7469 9.10675C77.64 9.34461 77.4887 9.54509 77.2924 9.70824C77.0991 9.87139 76.8655 9.99449 76.5913 10.0774C76.32 10.1632 76.0198 10.206 75.6909 10.206C75.5493 10.206 75.398 10.1922 75.2364 10.1645C75.0749 10.1369 74.9147 10.094 74.7557 10.036C74.5972 9.97787 74.4471 9.9032 74.306 9.81196C74.1644 9.72344 74.0431 9.617 73.9422 9.49252L74.4832 8.7915C74.6362 8.95745 74.8091 9.08327 75.0024 9.16899C75.1962 9.25747 75.4052 9.30175 75.6303 9.30175C75.9677 9.30175 76.2305 9.21461 76.4179 9.04041C76.6087 8.86893 76.7036 8.62421 76.7036 8.30619V8.049C76.5624 8.19833 76.3963 8.31448 76.2059 8.39744C76.0186 8.48039 75.8007 8.52187 75.5523 8.52187C75.261 8.52187 74.9982 8.4652 74.7646 8.35181C74.5336 8.23567 74.3361 8.07666 74.1716 7.87476C74.0071 7.67289 73.8799 7.43369 73.7905 7.15716C73.704 6.87782 73.6608 6.57504 73.6608 6.2487V6.1616ZM74.8685 6.2487C74.8685 6.43675 74.8871 6.61237 74.9249 6.77552C74.9651 6.93591 75.0258 7.07696 75.1067 7.19863C75.1873 7.31754 75.2899 7.41155 75.4141 7.48069C75.5378 7.54984 75.6849 7.58441 75.8554 7.58441C76.066 7.58441 76.239 7.54569 76.3747 7.46826C76.5133 7.39083 76.6231 7.28297 76.7036 7.14468V5.24486C76.6231 5.10381 76.5133 4.99599 76.3747 4.92132C76.239 4.84389 76.069 4.80517 75.8638 4.80517C75.6938 4.80517 75.5468 4.84112 75.4225 4.91299C75.2983 4.98213 75.1945 5.07894 75.111 5.20338C75.03 5.32505 74.9694 5.46886 74.9291 5.63477C74.8888 5.79792 74.8685 5.97355 74.8685 6.1616V6.2487Z" fill="#5A5A5A" fill-opacity="0.64"/>
<path d="M6.94209 12.4538C10.3752 12.4538 13.1582 9.78671 13.1582 6.49668C13.1582 3.20665 10.3752 0.539551 6.94209 0.539551C3.50901 0.539551 0.725952 3.20665 0.725952 6.49668C0.725952 9.78671 3.50901 12.4538 6.94209 12.4538Z" stroke="#5A5A5A" stroke-opacity="0.64" stroke-width="2.5"/>
<path d="M8.10241 8.64956C8.07223 8.59171 8.04658 8.52516 8.02547 8.44997C8.00432 8.37473 7.98622 8.29518 7.97113 8.21129C7.90169 8.28361 7.8217 8.35161 7.73115 8.41523C7.64056 8.47889 7.53946 8.53532 7.42775 8.58447C7.31911 8.63075 7.19833 8.66694 7.06552 8.69294C6.93271 8.72187 6.78934 8.73637 6.63538 8.73637C6.38484 8.73637 6.1539 8.70164 5.94262 8.63221C5.73431 8.56278 5.5547 8.46589 5.40378 8.3415C5.25283 8.2171 5.13511 8.06955 5.05058 7.89889C4.96605 7.7253 4.92383 7.53728 4.92383 7.33477C4.92383 6.84008 5.11548 6.45824 5.49887 6.18918C5.88526 5.91728 6.4603 5.78131 7.22402 5.78131H7.92585V5.5036C7.92585 5.27792 7.84887 5.10003 7.6949 4.96986C7.54098 4.83678 7.31911 4.77023 7.02932 4.77023C6.77272 4.77023 6.58557 4.82378 6.46785 4.93078C6.35013 5.03495 6.29124 5.17526 6.29124 5.3517H5.03248C5.03248 5.15211 5.07775 4.96263 5.1683 4.78327C5.2619 4.60391 5.39624 4.44625 5.57131 4.31028C5.7494 4.17431 5.96526 4.0673 6.2188 3.98918C6.47539 3.90818 6.76819 3.86768 7.09723 3.86768C7.39304 3.86768 7.66773 3.90239 7.92132 3.97182C8.17791 4.04125 8.39974 4.14396 8.5869 4.27989C8.77406 4.41586 8.92048 4.58799 9.02612 4.79627C9.1318 5.00167 9.18462 5.24035 9.18462 5.51225V7.52571C9.18462 7.77738 9.20119 7.98566 9.23443 8.15056C9.26762 8.31546 9.31591 8.4572 9.37932 8.57578V8.64956H8.10241ZM6.90253 7.80342C7.02932 7.80342 7.14704 7.78896 7.25569 7.76003C7.36438 7.73107 7.46247 7.69349 7.55001 7.64717C7.63755 7.6009 7.71301 7.54882 7.77642 7.49097C7.8398 7.43024 7.88961 7.36946 7.92585 7.30873V6.50163H7.28286C7.08667 6.50163 6.91914 6.52044 6.78027 6.55802C6.6414 6.59275 6.52821 6.64337 6.44067 6.70991C6.35314 6.77353 6.28823 6.85166 6.24597 6.94424C6.20371 7.0339 6.1826 7.13225 6.1826 7.2393C6.1826 7.40131 6.24143 7.53582 6.35915 7.64287C6.47993 7.74987 6.66102 7.80342 6.90253 7.80342Z" fill="#5A5A5A" fill-opacity="0.64"/>
</g>
<defs>
<clipPath id="clip0_1:726">
<rect width="78" height="13" fill="white"/>
</clipPath>
</defs>
</svg>

<svg width="78" height="13" fill="none" xmlns="http://www.w3.org/2000/svg"><g clip-path="url(#a)"><path d="M23.468 8.439a.99.99 0 0 1-.074-.19 2.436 2.436 0 0 1-.052-.23 1.563 1.563 0 0 1-.52.358c-.103.044-.218.078-.345.103a1.93 1.93 0 0 1-.412.042c-.24 0-.46-.033-.662-.1-.199-.066-.37-.159-.515-.278a1.215 1.215 0 0 1-.459-.962c0-.473.183-.838.55-1.095.37-.26.919-.39 1.65-.39h.67v-.265a.633.633 0 0 0-.22-.51c-.148-.128-.36-.191-.637-.191-.245 0-.424.05-.537.153a.51.51 0 0 0-.169.402h-1.203c0-.19.043-.372.13-.543a1.38 1.38 0 0 1 .385-.452c.17-.13.377-.233.62-.307.244-.078.524-.116.839-.116.283 0 .545.033.788.1.245.066.457.164.636.294.179.13.319.294.42.493.1.197.151.425.151.685v1.925c0 .24.016.44.048.597.032.158.078.293.138.406v.07h-1.22ZM22.32 7.63a1.308 1.308 0 0 0 .619-.15c.083-.044.155-.093.216-.149a.843.843 0 0 0 .143-.174v-.771h-.615c-.187 0-.347.018-.48.054a.887.887 0 0 0-.325.145.564.564 0 0 0-.186.224.653.653 0 0 0-.06.282.5.5 0 0 0 .168.386c.116.102.289.153.52.153ZM29.229 3.868c.182 0 .35.012.502.037.156.022.281.047.377.075l-.178 1.149a3.994 3.994 0 0 0-.489-.08 4.037 4.037 0 0 0-.472-.028c-.337 0-.609.062-.814.187a1.146 1.146 0 0 0-.454.535v2.696h-1.203V3.95h1.12l.057.734c.19-.255.418-.454.684-.597a1.77 1.77 0 0 1 .87-.22ZM34.185 7.032l.407-3.082h1.104l-.84 4.489H33.8l-.615-2.854-.593 2.854h-1.056l-.84-4.489h1.1l.407 3.095.588-3.095h.806l.588 3.082ZM38.786 8.522c-.36 0-.688-.057-.982-.17a2.358 2.358 0 0 1-.758-.46 2.07 2.07 0 0 1-.489-.69 2.155 2.155 0 0 1-.169-.85v-.166c0-.342.056-.655.169-.937.112-.285.27-.53.472-.734.202-.205.441-.364.718-.477.277-.114.579-.17.905-.17.338 0 .638.054.9.161.266.106.49.255.671.448.185.194.325.428.42.701.095.271.143.572.143.9v.49h-3.177c.023.152.07.292.138.42a1.202 1.202 0 0 0 .65.534c.141.05.295.075.463.075a1.885 1.885 0 0 0 .688-.129c.107-.044.206-.098.299-.162.092-.063.173-.138.242-.224l.602.623a1.7 1.7 0 0 1-.295.303 2.04 2.04 0 0 1-.424.26 2.846 2.846 0 0 1-1.186.254ZM38.643 4.8a.956.956 0 0 0-.67.265 1.16 1.16 0 0 0-.213.307 1.628 1.628 0 0 0-.13.399h1.974V5.68a1.05 1.05 0 0 0-.073-.344.83.83 0 0 0-.485-.465 1.062 1.062 0 0 0-.403-.07ZM44.764 8.439a1.003 1.003 0 0 1-.074-.19 2.536 2.536 0 0 1-.051-.23 1.574 1.574 0 0 1-.52.358c-.104.044-.22.078-.346.103a1.931 1.931 0 0 1-.411.042c-.24 0-.46-.033-.663-.1a1.595 1.595 0 0 1-.515-.278 1.215 1.215 0 0 1-.459-.962c0-.473.184-.838.55-1.095.37-.26.92-.39 1.65-.39h.67v-.265a.633.633 0 0 0-.22-.51c-.148-.128-.36-.191-.637-.191-.245 0-.424.05-.537.153a.51.51 0 0 0-.168.402h-1.204c0-.19.044-.372.13-.543a1.38 1.38 0 0 1 .385-.452c.17-.13.377-.233.62-.307.245-.078.524-.116.839-.116.283 0 .546.033.788.1.245.066.457.164.636.294.18.13.32.294.42.493.1.197.151.425.151.685v1.925c0 .24.016.44.048.597.032.158.078.293.138.406v.07h-1.22Zm-1.147-.809a1.312 1.312 0 0 0 .619-.15.846.846 0 0 0 .36-.324v-.77h-.615c-.188 0-.348.018-.481.054a.886.886 0 0 0-.325.145.56.56 0 0 0-.185.224.649.649 0 0 0-.061.282c0 .155.056.283.168.386.116.102.29.153.52.153ZM49.153 7.107l.06.324.061-.311 1.03-3.17h1.256L49.78 8.44h-1.13L46.864 3.95h1.255l1.035 3.157ZM54.758 8.522c-.36 0-.688-.057-.982-.17a2.356 2.356 0 0 1-.758-.46 2.068 2.068 0 0 1-.489-.69 2.158 2.158 0 0 1-.169-.85v-.166c0-.342.057-.655.17-.937.112-.285.27-.53.47-.734.203-.205.443-.364.72-.477.277-.114.578-.17.904-.17.338 0 .638.054.9.161.266.106.49.255.672.448.184.194.324.428.42.701.095.271.142.572.142.9v.49h-3.177c.023.152.07.292.138.42a1.205 1.205 0 0 0 .65.534c.141.05.295.075.463.075a1.89 1.89 0 0 0 .688-.129c.107-.044.206-.098.299-.162.092-.063.173-.138.242-.224l.602.623a1.696 1.696 0 0 1-.294.303c-.119.096-.26.183-.425.26a2.843 2.843 0 0 1-1.186.254ZM54.616 4.8a.955.955 0 0 0-.672.265 1.162 1.162 0 0 0-.211.307 1.628 1.628 0 0 0-.13.399h1.973V5.68a1.046 1.046 0 0 0-.073-.344.832.832 0 0 0-.485-.465 1.061 1.061 0 0 0-.402-.07ZM59.026 7.77c0-.107.02-.207.056-.298a.651.651 0 0 1 .165-.24.758.758 0 0 1 .264-.162.938.938 0 0 1 .35-.062c.13 0 .247.02.351.062a.714.714 0 0 1 .424.402c.04.091.061.191.061.299a.72.72 0 0 1-.06.294.701.701 0 0 1-.425.399.999.999 0 0 1-.35.058.998.998 0 0 1-.351-.058.7.7 0 0 1-.429-.398.771.771 0 0 1-.056-.295ZM62.97 6.153c0-.326.049-.627.147-.904.098-.28.24-.521.428-.726.19-.205.422-.365.693-.481a2.39 2.39 0 0 1 .94-.174c.351 0 .664.058.939.174.273.116.504.276.692.481.19.205.335.447.433.726.098.277.147.578.147.904v.087c0 .33-.049.634-.147.913a2.095 2.095 0 0 1-.428.722 1.965 1.965 0 0 1-.693.481 2.43 2.43 0 0 1-.935.17c-.352 0-.667-.057-.944-.17a2.009 2.009 0 0 1-.697-.481 2.083 2.083 0 0 1-.428-.722 2.731 2.731 0 0 1-.147-.913v-.087Zm1.203.087c0 .188.019.365.056.531.038.164.097.307.177.432a.904.904 0 0 0 .313.29.95.95 0 0 0 .467.108.909.909 0 0 0 .454-.108.868.868 0 0 0 .308-.29c.08-.125.14-.268.177-.432.038-.166.056-.343.056-.53v-.088c0-.182-.018-.355-.056-.518a1.333 1.333 0 0 0-.177-.432.857.857 0 0 0-.307-.294.928.928 0 0 0-.464-.108.916.916 0 0 0-.459.108.89.89 0 0 0-.312.294c-.08.125-.14.269-.177.432a2.298 2.298 0 0 0-.056.518v.087ZM71.821 3.868c.182 0 .35.012.502.037.156.022.282.047.377.075l-.178 1.149a3.999 3.999 0 0 0-.489-.08 4.036 4.036 0 0 0-.472-.028c-.337 0-.608.062-.813.187a1.146 1.146 0 0 0-.455.535v2.696H69.09V3.95h1.12l.057.734c.19-.255.419-.454.684-.597a1.77 1.77 0 0 1 .87-.22ZM73.66 6.162c0-.34.044-.652.13-.934.09-.282.217-.524.382-.726a1.7 1.7 0 0 1 .597-.468c.233-.111.497-.166.792-.166.274 0 .51.044.706.132.196.089.363.215.502.378l.047-.427h1.095v4.343c0 .304-.054.575-.164.813a1.65 1.65 0 0 1-.455.601 1.944 1.944 0 0 1-.7.37 2.976 2.976 0 0 1-1.356.087 2.755 2.755 0 0 1-.48-.129 2.257 2.257 0 0 1-.45-.224 1.46 1.46 0 0 1-.364-.32l.541-.7c.153.165.326.291.52.377.193.088.402.133.627.133.338 0 .6-.087.788-.262.19-.171.286-.416.286-.734V8.05a1.505 1.505 0 0 1-1.152.473c-.291 0-.554-.057-.787-.17a1.8 1.8 0 0 1-.593-.477 2.189 2.189 0 0 1-.382-.718 3.057 3.057 0 0 1-.13-.908v-.087Zm1.209.087c0 .188.018.363.056.527.04.16.1.301.182.423a.89.89 0 0 0 .307.282.89.89 0 0 0 .441.103c.211 0 .384-.038.52-.116a.86.86 0 0 0 .329-.323v-1.9a.822.822 0 0 0-.33-.324 1.018 1.018 0 0 0-.51-.116.866.866 0 0 0-.753.398 1.344 1.344 0 0 0-.182.432c-.04.163-.06.339-.06.527v.087Z" fill="#5A5A5A" fill-opacity=".64"/><path d="M6.942 12.454c3.433 0 6.216-2.667 6.216-5.957S10.375.54 6.942.54C3.51.54.726 3.207.726 6.497s2.783 5.957 6.216 5.957Z" stroke="#5A5A5A" stroke-opacity=".64" stroke-width="2.5"/><path d="M8.102 8.65a1.038 1.038 0 0 1-.077-.2 2.552 2.552 0 0 1-.054-.239 1.755 1.755 0 0 1-.543.373 1.81 1.81 0 0 1-.362.109 2.02 2.02 0 0 1-.43.043c-.251 0-.482-.034-.693-.104a1.665 1.665 0 0 1-.54-.29 1.271 1.271 0 0 1-.48-1.007c0-.495.192-.877.576-1.146.386-.272.961-.408 1.725-.408h.702v-.277a.662.662 0 0 0-.231-.534c-.154-.133-.376-.2-.666-.2-.256 0-.443.054-.561.16a.534.534 0 0 0-.177.422H5.032c0-.2.046-.39.136-.569.094-.18.228-.337.403-.473.178-.136.394-.243.648-.32.256-.082.55-.122.878-.122.296 0 .57.034.824.104.257.07.479.172.666.308.187.136.333.308.44.516.105.206.158.444.158.716v2.014c0 .251.016.46.05.625.033.164.08.306.144.425v.074H8.102Zm-1.2-.847a1.37 1.37 0 0 0 .648-.156c.088-.046.163-.098.226-.156a.883.883 0 0 0 .15-.182v-.807h-.643c-.196 0-.364.018-.503.056a.928.928 0 0 0-.34.152.59.59 0 0 0-.194.234.683.683 0 0 0-.063.295c0 .162.058.297.176.404.12.107.302.16.544.16Z" fill="#5A5A5A" fill-opacity=".64"/></g><defs><clipPath id="a"><path fill="#fff" d="M0 0h78v13H0z"/></clipPath></defs></svg>
